app/dist/common/images/ferroglobe.svg

<svg height="18" width="18" xmlns="http://www.w3.org/2000/svg"><path d="m0 0h18v18h-18z" fill="#f0f3fa"/><path d="m7.45 7 1.55-3.3-3.08 1.05z" fill="#2aaae1"/><path d="m11.1 7.62-2.1-3.92 3.11 1.05 1.88 2.64-2.88.23z" fill="#0772b9"/><path d="m7.45 7 1.55-3.3 2.12 3.91-2.09 1.37z" fill="#ffcf03"/><path d="m4 7.37 1.92-2.62 1.53 2.25-2.45 2.2z" fill="#8dbf44"/><path d="m4 10.6v-3.22l1.01 1.82-1 1.4z" fill="#0882c5"/><path d="m5.91 13.25-1.91-2.64 1.01-1.43 1.56.8z" fill="#ffcf03"/><path d="m6.55 9.99-1.53-.8 2.42-2.19 1.59 1.97-2.48 1.03z" fill="#eb5b27"/><path d="m9 11.46-2.45-1.47 2.45-1z" fill="#0882c5"/><path d="m9 11.47v-2.49l2.12-1.37.2 2.02-.75 1z" fill="#eb5b27"/><path d="m14 7.37-2.88.25.2 2 2.68 1.03z" fill="#0882c5"/><path d="m12.1 13.24-.79-3.62 2.69 1.02z" fill="#0772b9"/><path d="m10.54 10.64.78-1.02.79 3.62z" fill="#02538a"/><path d="m9 14.3v-2.85l1.54-.81 1.57 2.6z" fill="#0882c5"/><path d="m9 14.3-2.44-4.3 2.44 1.45v2.84z" fill="#47ac4c"/><path d="m5.91 13.25.65-3.25 2.44 4.3z" fill="#0971b8"/></svg>

<!-- by TradingView --><svg xmlns="http://www.w3.org/2000/svg" width="18" height="18"><path fill="#F0F3FA" d="M0 0h18v18H0z"/><path d="M7.45 7L9 3.7 5.92 4.75 7.45 7z" fill="#2AAAE1"/><path d="M11.1 7.62L9 3.7l3.11 1.05 1.88 2.64-2.88.23z" fill="#0772B9"/><path d="M7.45 7L9 3.7l2.12 3.91-2.09 1.37L7.45 7z" fill="#FFCF03"/><path d="M4 7.37l1.92-2.62L7.45 7 5 9.2 4 7.37z" fill="#8DBF44"/><path d="M4 10.6V7.38L5.01 9.2l-1 1.4z" fill="#0882C5"/><path d="M5.91 13.25L4 10.61l1.01-1.43 1.56.8-.66 3.27z" fill="#FFCF03"/><path d="M6.55 9.99l-1.53-.8L7.44 7l1.59 1.97L6.55 10z" fill="#EB5B27"/><path d="M9 11.46L6.55 9.99l2.45-1v2.47z" fill="#0882C5"/><path d="M9 11.47V8.98l2.12-1.37.2 2.02-.75 1-1.57.84z" fill="#EB5B27"/><path d="M14 7.37l-2.88.25.2 2L14 10.65V7.37z" fill="#0882C5"/><path d="M12.1 13.24l-.79-3.62L14 10.64l-1.9 2.6z" fill="#0772B9"/><path d="M10.54 10.64l.78-1.02.79 3.62-1.57-2.6z" fill="#02538A"/><path d="M9 14.3v-2.85l1.54-.81 1.57 2.6L9 14.3z" fill="#0882C5"/><path d="M9 14.3L6.56 10 9 11.45v2.84z" fill="#47AC4C"/><path d="M5.91 13.25L6.56 10 9 14.3l-3.09-1.05z" fill="#0971B8"/></svg>
